public/icons/BrandName.svg

<svg width="56" height="18" viewBox="0 0 56 18" fill="none" xmlns="http://www.w3.org/2000/svg">
<path d="M8.69996 10.3259H3.52469V13.9434H7.34167C8.16696 13.9434 8.99225 13.8556 9.83474 13.6976C10.6772 13.5395 11.365 13.3288 11.898 13.0829V16.279C11.3822 16.5424 10.6772 16.7532 9.81755 16.9112C8.95787 17.0693 8.08099 17.1395 7.18693 17.1395H1.6162C0.756519 17.1395 0.051582 16.4195 0.051582 15.5415V8.76293C0.051582 7.88488 0.756519 7.16488 1.6162 7.16488H6.79147V3.61756H1.56462C0.704937 3.61756 0 2.89756 0 2.01951C0 1.14146 0.704937 0.421464 1.56462 0.421464H8.68277C9.54245 0.421464 10.2474 1.14146 10.2474 2.01951V8.7278C10.2474 9.60585 9.54245 10.3259 8.68277 10.3259H8.69996ZM14.563 18C13.6001 18 12.8264 17.2098 12.8264 16.2263V1.77366C12.8264 0.790244 13.6001 0 14.563 0C15.5258 0 16.2995 0.790244 16.2995 1.77366V16.2088C16.2995 17.1922 15.5258 17.9824 14.563 17.9824V18Z" fill="#1F4172"/>
<path d="M35.316 17.3682H20.753C19.859 17.3682 19.1196 16.6307 19.1196 15.6999C19.1196 14.7868 19.8418 14.0316 20.753 14.0316H35.316C36.2101 14.0316 36.9494 14.7692 36.9494 15.6999C36.9494 16.6131 36.2273 17.3682 35.316 17.3682ZM34.3532 3.72334H23.6415V8.25407H34.5595C35.4536 8.25407 36.1757 8.99163 36.1757 9.9048C36.1757 10.818 35.4536 11.5555 34.5595 11.5555H21.6815C20.7874 11.5555 20.0653 10.818 20.0653 9.9048V2.07261C20.0653 1.15944 20.7874 0.421875 21.6815 0.421875H34.3532C35.2472 0.421875 35.9694 1.15944 35.9694 2.07261C35.9694 3.00334 35.2472 3.7409 34.3532 3.7409V3.72334Z" fill="#1F4172"/>
<path d="M48.5723 17.1571H41.351C40.4569 17.1571 39.752 16.4195 39.752 15.5239V2.0722C39.752 1.15902 40.4741 0.439024 41.351 0.439024H48.5723C49.4663 0.439024 50.1713 1.17659 50.1713 2.0722V15.5239C50.1713 16.4371 49.4491 17.1571 48.5723 17.1571ZM46.6982 13.8205V3.74049H43.2251V13.8205H46.6982ZM54.2634 18C53.3005 18 52.5268 17.2098 52.5268 16.2263V1.77366C52.5268 0.790244 53.3005 0 54.2634 0C55.2262 0 55.9999 0.790244 55.9999 1.77366V16.2088C55.9999 17.1922 55.2262 17.9824 54.2634 17.9824V18Z" fill="#1F4172"/>
</svg>

<svg width="56" height="18" fill="none" xmlns="http://www.w3.org/2000/svg"><path d="M8.7 10.326H3.525v3.617h3.817c.825 0 1.65-.087 2.493-.245.842-.159 1.53-.37 2.063-.615v3.196c-.516.263-1.22.474-2.08.632-.86.158-1.737.229-2.631.229h-5.57c-.86 0-1.565-.72-1.565-1.599V8.764c0-.878.705-1.598 1.564-1.598h5.175V3.618H1.565C.705 3.618 0 2.898 0 2.02 0 1.14.705.42 1.565.42h7.118c.86 0 1.564.72 1.564 1.599v6.708c0 .878-.705 1.598-1.564 1.598H8.7ZM14.563 18c-.963 0-1.737-.79-1.737-1.774V1.774C12.826.79 13.6 0 14.563 0c.963 0 1.736.79 1.736 1.774v14.435c0 .983-.773 1.773-1.736 1.773V18ZM35.316 17.368H20.753c-.894 0-1.633-.737-1.633-1.668 0-.913.722-1.668 1.633-1.668h14.563c.894 0 1.633.737 1.633 1.668 0 .913-.722 1.668-1.633 1.668Zm-.963-13.645H23.641v4.531H34.56c.894 0 1.616.738 1.616 1.65 0 .914-.722 1.652-1.617 1.652H21.682c-.895 0-1.617-.738-1.617-1.651V2.073c0-.914.722-1.651 1.616-1.651h12.672c.894 0 1.616.737 1.616 1.65 0 .931-.722 1.669-1.616 1.669v-.018ZM48.572 17.157h-7.221c-.894 0-1.599-.738-1.599-1.633V2.072c0-.913.722-1.633 1.599-1.633h7.221c.894 0 1.6.738 1.6 1.633v13.452c0 .913-.723 1.633-1.6 1.633Zm-1.874-3.337V3.74h-3.473v10.08h3.473ZM54.263 18c-.962 0-1.736-.79-1.736-1.774V1.774C52.527.79 53.3 0 54.263 0S56 .79 56 1.774v14.435c0 .983-.774 1.773-1.737 1.773V18Z" fill="#1F4172"/></svg>
